X: 10590
T: Doucet's
R: jig
M: 6/8
K: Gminor
|:GDG B2d|gab ~a2g|fdf ~c2B|Afd cAF|
GAB ABc|Bcd fdg|fed cAF|1 G3 G2D:|2 G3 G2A||
|:BAB fdf|bab fdB|cAc Bdf|Acf cAF|
BAB fdf|bab fdB|cfd cAF|1 G3 G2A:|2 G3 G2D||

